X: 1751
T: Apples In Winter
R: jig
M: 6/8
K: Edorian
dc|:BEE d2 A|BAG FGE|D2 D FDF|ABc ded|
BEE BAB|def gfe|fed BGF|1 GEE Edc:|2 GEE E2 B||
efe edB|(e/f/g)e feB|d2 d dAF|DFA def|efe edB|
def g2 a|bgb agf|gee e2 B|efe edB|(e/f/g)e feB|
d2 d dAF|DFA def|edB def|gba g2 f|ged BGF|GEE E2||

